X: 1
T: Inveresk House
C: Nathaniel Gow
O: arr. James Gray
R: jig
Z: 2013 John Chambers <jc:trillian.mit.edu>
B: Alex & James Gray "Tweeddale Collection" v.4 #9 p.25
N: Tune for "Inveresk House" by Alex Gray
S: PDF file of unknown origin, from Susie Petrov
M: 6/8
L: 1/8
K: F
C |\
"F"A2A "C7"B2B | "F"cAF "C7"GEC | "F"F2F "C7"G2G | "F"ABA "C7"G3 |\
"F"A2A "C7"B2B | "F"cAF "C7"GEC | "F"F2F "Gm"GAB | "C7"ABG "F"F2 :|
z |\
"F"c2c cdc | f2c cdc | A2A ABc | cBA "C7"G3 |\
"F"C2C CDC | F2C CDC | "Bb"DFD "C"EGE | "Dm"FAF "C7/e"GBG ||
y |\
"F"A2A "C7"B2B | "F"cAF "C7"GEC | "F"F2F "C7"G2G | "F"ABA "C7"G3 |\
"F"A2A "C7"B2B | "F"cAF "C7"GEC | "Dm"F2F "Gm"GAB | "C7"ABG "F"F2 |]
